X:1
T:Ubi est Abel frater tuus? - Aichinger
T:#
%%score [ 1 2 3 ]
L:1/8
Q:1/4=200
M:none
K:F
V:1 treble nm="Soprano" snm="S"
V:2 treble nm="Alto" snm="A"
V:3 bass nm="Bass" snm="B"
V:1
"^Ubi est Abel frater tuus?""^Gregor Aichinger\n(1561-1628)""^Genesis 4: 9-10" c12 c4 | A8 B8 | %2
w: U- bi|est A-|
 A4 (c6 B2 A2 G2 | F4) A4 G8 | F8 z8 | z16 |[M:4/2] z8 c8- | c4 c4 A8 | B8 A4 (c4- | %9
w: bel fra\- * * *|* ter tu-|us?||U\-|* bi est|A- bel fra\-|
 c2 B2 A2 G2 F8) | D8 (F4 E2 D2 | E8) (F6 G2 | A16) | z4 c8 c4 | A8 B8 | G4 (c6 B2 A2 G2 | %16
w: |ter tu\- * *|* us? *||u- bi|est A-|bel fra\- * * *|
 F6 E2 D2 C2 D2 E2 | F4) F4 (E4 D2 C2 | D8) C4 G4 | A4 B6 B2 A4 | F4 G4 A8 | (d6 cB A4) c4 | %22
w: |* ter tu\- * *|* us? a-|it Do- mi- nus|ad Ca- in,|qui * * * re-|
 B8 A8 | z16 | z16 | z16 | z16 | z16 | z16 | z8 A8- | A4 G4 F8 | E8 z4 F4- | F4 F4 G8 | A8 z8 |: %34
w: spon- dit:|||||||Quid|* fe- ci-|sti, quid|* fe- ci-|sti?|
 c8 z8 | z4 G4 c6 c2 | c4 c4 c4 G4 | c8 z4 F4 | c6 c2 c4 c4 | A4 F4 c8- | c8 z4 f4 | f4 f4 d8 | %42
w: Vox,|vox san- gui-|nis fra- tris tu-|i, vox|san- gui- nis fra-|tris tu- i|* cla-|mat ad me,|
 z4 d4 d4 d4 | B8 z4 c4 | c4 c4 G8 | z4 B4 B4 B4 |1 (A2 G2 A2 B2 c8 | B12) A4 |[M:3/1] G8 A8 z8 :|2 %49
w: cla- mat ad|me, cla-|mat ad me,|cla- mat ad|me * * * *|* de|ter- ra.|
 (A2 G2[Q:1/4=198] A2 B2[Q:1/4=194] c8[Q:1/4=191] | %50
w: me * * * *|
[Q:1/4=188] B12)[Q:1/4=177] A4[Q:1/4=186][Q:1/4=185][Q:1/4=183][Q:1/4=181] | %51
w: * de|
[Q:1/4=175] G8[Q:1/4=170] A16[Q:1/4=174][Q:1/4=173][Q:1/4=171] |] %52
w: ter- ra.|
V:2
 z16 | z16 | F12 F4 | D8 E8 | F8 z4 (G4- | G2 F2 E2 D2 C4) E4 |[M:4/2] (D8 C8) | C16 | z8 C8- | %9
w: ||U- bi|est A-|bel fra\-|* * * * * ter|tu\- *|us?|U\-|
 C4 C4 A,8 | B,8 (A,6 B,2 | C8) z4 (C4- | C2 B,2 A,2 G,2 F,4) A,4 | G,8 F,4 (F4- | %14
w: * bi est|A- bel *|* fra\-|* * * * * ter|tu- s? fra\-|
 F2 E2 D2 C2 B,4) G,4 | C8 F,8 | z4 (F6 E2 D2 C2 | B,4) A,4 (C2 G,2 C4- | C2 =B,A, B,4) C4 E4 | %19
w: * * * * * ter|tu- us?|fra\- * * *|* ter tu\- * *|* * * * us? a-|
 C4 D6 D2 C4 | D4 E4 F8 | F12 E4 | D8 C8 | F6 F2 D2 F2 F2 F2 | E4 D4 E8 | C4 D8 D4 | E8 F8 | z16 | %28
w: it Do- mi- nus|as Ca- in,|qui re-|spon- dit:|Ne- sci- o, nun- quid e-|go sum cu-|stos fra- tris|me- i?||
 z16 | z16 | z16 | z16 | z16 | z8 C8 |: z8 F8 | E6 E2 E4 E4 | E4 F4 E8 | z4 G4 A6 A2 | %38
w: |||||Vox,|vox|san- gui- nis fra-|tris tu- i,|vox san- gui-|
 A4 A4 A4 G4 | F8 z4 E4 | E4 E4 F8 | z4 F4 F4 F4 | D8 z4 D4 | D4 D4 C8 | z4 E4 E4 E4 | D8 z4 D4 |1 %46
w: nis fra- tris tu-|i cla-|mat ad me,|cla- mat ad|me, cla-|mat ad me,|cla- mat ad|me, cla-|
 D4 D4 E4 C4 | (D2 E2 F2 D2 E4 F4- |[M:3/1] F4 E4) F8 C8 :|2 D4 D4 E4 C4 | (D2 E2 F2 D2 E4 F4- | %51
w: mat ad me de|ter\- * * * * *|* * ra. vox,|mat ad me de|ter\- * * * * *|
 F2 ED E4) F16 |] %52
w: * * * * ra.|
V:3
 z16 | z16 | z16 | z16 | z8 C8- | C4 C4 A,8 |[M:4/2] B,8 A,4 (C4- | C2 B,2 A,2 G,2 F,4) A,4 | %8
w: ||||U\-|* bi est|A- bel fra\-|* * * * * ter|
 G,8 F,8 | z4 (F,6 E,2 D,2 C,2 | B,,4) B,,4 D,8 | C,8 F,8- | F,4 F,4 D,8 | E,8 F,8- | F,8 z8 | %15
w: tu- us?|fra\- * * *|* ter tu-|us? u\-|* bi est|A- bel||
 z8 z4 (F,4- | F,2 E,2 D,2 C,2 B,,6 C,2 | D,8) C,8 | G,8 C,4 C4 | A,4 G,6 G,2 A,4 | B,4 G,4 F,8 | %21
w: fra\-||* ter|tu- us? a-|it Do- mi- nus|ad Ca- in,|
 (B,,6 C,2 D,4) A,,4 | B,,8 F,8 | z16 | z16 | z16 | z16 | F,8 D,8 | D,4 ^C,4 D,8 | A,8 F,8- | %30
w: qui * * re-|spon- dit:|||||Di- xit-|que ad e-|um: Quid|
 F,4 C,4 D,8 | A,,8 z8 | z16 | z16 |: z8 z4 F,4 | C6 C2 C4 C4 | C4 F,4 C8 | z4 C,4 F,6 F,2 | %38
w: * fe- ci-|sti?|||Vox|san- gui- nis fra-|tris tu- i,|vox san- gui-|
 F,4 F,4 F,4 C,4 | F,8 z4 A,4 | A,4 A,4 D,8 | z4 D,4 D,4 D,4 | B,,8 z4 B,,4 | B,,4 B,,4 F,8 | %44
w: nis fra- tris tu-|i cla-|mat ad me,|cla- mat ad|me, cla-|mat ad me,|
 z4 C,4 C,4 C,4 | G,8 z4 D,4 |1 D,4 D,4 A,,8 | B,,8 C,8- |[M:3/1] C,8 F,8 z8 :|2 D,4 D,4 A,,8 | %50
w: cla- mat ad|me, cla-|ma ad me|de ter\-|* ra.|ma ad me|
 B,,8 C,8- | C,8 F,16 |] %52
w: de ter\-|* ra.|

